images/3883.svg

<?xml version="1.0" encoding="UTF-8"?>
<svg xmlns="http://www.w3.org/2000/svg" xmlns:xlink="http://www.w3.org/1999/xlink" width="300pt" height="300pt" viewBox="0 0 300 300" version="1.1">
<defs>
<g>
<symbol overflow="visible" id="glyph0-0">
<path style="stroke:none;" d="M 0.453125 1.59375 L 0.453125 -6.34375 L 4.953125 -6.34375 L 4.953125 1.59375 Z M 0.953125 1.09375 L 4.453125 1.09375 L 4.453125 -5.84375 L 0.953125 -5.84375 Z M 0.953125 1.09375 "/>
</symbol>
<symbol overflow="visible" id="glyph0-1">
<path style="stroke:none;" d="M 0.890625 -6.5625 L 2.078125 -6.5625 L 4.984375 -1.078125 L 4.984375 -6.5625 L 5.84375 -6.5625 L 5.84375 0 L 4.65625 0 L 1.75 -5.484375 L 1.75 0 L 0.890625 0 Z M 0.890625 -6.5625 "/>
</symbol>
<symbol overflow="visible" id="glyph0-2">
<path style="stroke:none;" d="M 4.8125 -6.34375 L 4.8125 -5.484375 C 4.476562 -5.640625 4.160156 -5.753906 3.859375 -5.828125 C 3.566406 -5.910156 3.28125 -5.953125 3 -5.953125 C 2.507812 -5.953125 2.132812 -5.859375 1.875 -5.671875 C 1.613281 -5.484375 1.484375 -5.21875 1.484375 -4.875 C 1.484375 -4.582031 1.570312 -4.363281 1.75 -4.21875 C 1.925781 -4.070312 2.253906 -3.953125 2.734375 -3.859375 L 3.28125 -3.75 C 3.9375 -3.625 4.421875 -3.398438 4.734375 -3.078125 C 5.054688 -2.765625 5.21875 -2.34375 5.21875 -1.8125 C 5.21875 -1.175781 5.003906 -0.691406 4.578125 -0.359375 C 4.148438 -0.0351562 3.523438 0.125 2.703125 0.125 C 2.390625 0.125 2.054688 0.0859375 1.703125 0.015625 C 1.359375 -0.046875 1 -0.148438 0.625 -0.296875 L 0.625 -1.203125 C 0.976562 -1.003906 1.328125 -0.851562 1.671875 -0.75 C 2.023438 -0.644531 2.367188 -0.59375 2.703125 -0.59375 C 3.203125 -0.59375 3.585938 -0.691406 3.859375 -0.890625 C 4.140625 -1.085938 4.28125 -1.375 4.28125 -1.75 C 4.28125 -2.070312 4.179688 -2.320312 3.984375 -2.5 C 3.785156 -2.675781 3.460938 -2.8125 3.015625 -2.90625 L 2.46875 -3.015625 C 1.8125 -3.148438 1.332031 -3.359375 1.03125 -3.640625 C 0.738281 -3.921875 0.59375 -4.3125 0.59375 -4.8125 C 0.59375 -5.382812 0.796875 -5.835938 1.203125 -6.171875 C 1.609375 -6.515625 2.171875 -6.6875 2.890625 -6.6875 C 3.203125 -6.6875 3.515625 -6.65625 3.828125 -6.59375 C 4.148438 -6.539062 4.476562 -6.457031 4.8125 -6.34375 Z M 4.8125 -6.34375 "/>
</symbol>
<symbol overflow="visible" id="glyph0-3">
<path style="stroke:none;" d="M 3.546875 -5.953125 C 2.898438 -5.953125 2.382812 -5.710938 2 -5.234375 C 1.625 -4.753906 1.4375 -4.101562 1.4375 -3.28125 C 1.4375 -2.445312 1.625 -1.789062 2 -1.3125 C 2.382812 -0.832031 2.898438 -0.59375 3.546875 -0.59375 C 4.191406 -0.59375 4.703125 -0.832031 5.078125 -1.3125 C 5.453125 -1.789062 5.640625 -2.445312 5.640625 -3.28125 C 5.640625 -4.101562 5.453125 -4.753906 5.078125 -5.234375 C 4.703125 -5.710938 4.191406 -5.953125 3.546875 -5.953125 Z M 3.546875 -6.6875 C 4.460938 -6.6875 5.195312 -6.375 5.75 -5.75 C 6.300781 -5.132812 6.578125 -4.3125 6.578125 -3.28125 C 6.578125 -2.238281 6.300781 -1.410156 5.75 -0.796875 C 5.195312 -0.179688 4.460938 0.125 3.546875 0.125 C 2.617188 0.125 1.878906 -0.179688 1.328125 -0.796875 C 0.773438 -1.410156 0.5 -2.238281 0.5 -3.28125 C 0.5 -4.3125 0.773438 -5.132812 1.328125 -5.75 C 1.878906 -6.375 2.617188 -6.6875 3.546875 -6.6875 Z M 3.546875 -6.6875 "/>
</symbol>
<symbol overflow="visible" id="glyph0-4">
<path style="stroke:none;" d="M 0.890625 -6.5625 L 1.765625 -6.5625 L 1.765625 -3.875 L 5 -3.875 L 5 -6.5625 L 5.890625 -6.5625 L 5.890625 0 L 5 0 L 5 -3.125 L 1.765625 -3.125 L 1.765625 0 L 0.890625 0 Z M 0.890625 -6.5625 "/>
</symbol>
<symbol overflow="visible" id="glyph0-5">
<path style="stroke:none;" d="M 0.890625 -6.5625 L 4.65625 -6.5625 L 4.65625 -5.8125 L 1.765625 -5.8125 L 1.765625 -3.875 L 4.375 -3.875 L 4.375 -3.140625 L 1.765625 -3.140625 L 1.765625 0 L 0.890625 0 Z M 0.890625 -6.5625 "/>
</symbol>
</g>
</defs>
<g id="surface40493">
<rect x="0" y="0" width="300" height="300" style="fill:rgb(100%,100%,100%);fill-opacity:1;stroke:none;"/>
<path style="fill:none;stroke-width:1.2;stroke-linecap:butt;stroke-linejoin:miter;stroke:rgb(0%,0%,0%);stroke-opacity:1;stroke-miterlimit:10;" d="M 132.925781 168.066406 L 124.542969 147.371094 "/>
<path style="fill:none;stroke-width:1.2;stroke-linecap:butt;stroke-linejoin:miter;stroke:rgb(0%,0%,0%);stroke-opacity:1;stroke-miterlimit:10;" d="M 124.542969 147.371094 L 102.429688 144.285156 "/>
<path style="fill:none;stroke-width:1.2;stroke-linecap:butt;stroke-linejoin:miter;stroke:rgb(0%,0%,0%);stroke-opacity:1;stroke-miterlimit:10;" d="M 123.054688 141.859375 L 105.367188 139.390625 "/>
<path style="fill:none;stroke-width:1.2;stroke-linecap:butt;stroke-linejoin:miter;stroke:rgb(0%,0%,0%);stroke-opacity:1;stroke-miterlimit:10;" d="M 138.269531 129.765625 L 124.542969 147.371094 "/>
<path style="fill:none;stroke-width:1.2;stroke-linecap:butt;stroke-linejoin:miter;stroke:rgb(0%,0%,0%);stroke-opacity:1;stroke-miterlimit:10;" d="M 102.429688 144.285156 L 94.046875 123.589844 "/>
<path style="fill:none;stroke-width:1.2;stroke-linecap:butt;stroke-linejoin:miter;stroke:rgb(0%,0%,0%);stroke-opacity:1;stroke-miterlimit:10;" d="M 102.429688 144.285156 L 95.5625 153.085938 "/>
<path style="fill:none;stroke-width:1.2;stroke-linecap:butt;stroke-linejoin:miter;stroke:rgb(100%,0%,0%);stroke-opacity:1;stroke-miterlimit:10;" d="M 95.5625 153.085938 L 88.699219 161.890625 "/>
<path style="fill:none;stroke-width:1.2;stroke-linecap:butt;stroke-linejoin:miter;stroke:rgb(0%,0%,0%);stroke-opacity:1;stroke-miterlimit:10;" d="M 94.046875 123.589844 L 107.777344 105.984375 "/>
<path style="fill:none;stroke-width:1.2;stroke-linecap:butt;stroke-linejoin:miter;stroke:rgb(0%,0%,0%);stroke-opacity:1;stroke-miterlimit:10;" d="M 99.5625 125.058594 L 110.546875 110.976562 "/>
<path style="fill:none;stroke-width:1.2;stroke-linecap:butt;stroke-linejoin:miter;stroke:rgb(0%,0%,0%);stroke-opacity:1;stroke-miterlimit:10;" d="M 107.777344 105.984375 L 118.832031 107.527344 "/>
<path style="fill:none;stroke-width:1.2;stroke-linecap:butt;stroke-linejoin:miter;stroke:rgb(0%,0%,100%);stroke-opacity:1;stroke-miterlimit:10;" d="M 118.832031 107.527344 L 129.886719 109.070312 "/>
<path style="fill:none;stroke-width:1.2;stroke-linecap:butt;stroke-linejoin:miter;stroke:rgb(0%,0%,100%);stroke-opacity:1;stroke-miterlimit:10;" d="M 129.886719 109.070312 L 134.078125 119.417969 "/>
<path style="fill:none;stroke-width:1.2;stroke-linecap:butt;stroke-linejoin:miter;stroke:rgb(0%,0%,0%);stroke-opacity:1;stroke-miterlimit:10;" d="M 134.078125 119.417969 L 138.269531 129.765625 "/>
<path style="fill:none;stroke-width:1.2;stroke-linecap:butt;stroke-linejoin:miter;stroke:rgb(0%,0%,100%);stroke-opacity:1;stroke-miterlimit:10;" d="M 125.855469 113.113281 L 129.210938 121.390625 "/>
<path style="fill:none;stroke-width:1.2;stroke-linecap:butt;stroke-linejoin:miter;stroke:rgb(0%,0%,0%);stroke-opacity:1;stroke-miterlimit:10;" d="M 129.210938 121.390625 L 132.5625 129.667969 "/>
<path style=" stroke:none;fill-rule:nonzero;fill:rgb(100%,100%,100%);fill-opacity:1;" d="M 126.886719 103.570312 L 133.886719 103.570312 L 133.886719 114.570312 L 126.886719 114.570312 Z M 126.886719 103.570312 "/>
<g style="fill:rgb(0%,0%,100%);fill-opacity:1;">
  <use xlink:href="#glyph0-1" x="126.886719" y="112.233398"/>
</g>
<path style="fill:none;stroke-width:1.2;stroke-linecap:butt;stroke-linejoin:miter;stroke:rgb(0%,0%,0%);stroke-opacity:1;stroke-miterlimit:10;" d="M 138.269531 129.765625 L 160.382812 132.851562 "/>
<path style="fill:none;stroke-width:1.2;stroke-linecap:butt;stroke-linejoin:miter;stroke:rgb(0%,0%,0%);stroke-opacity:1;stroke-miterlimit:10;" d="M 160.382812 132.851562 L 164.574219 143.199219 "/>
<path style="fill:none;stroke-width:1.2;stroke-linecap:butt;stroke-linejoin:miter;stroke:rgb(80%,80%,0%);stroke-opacity:1;stroke-miterlimit:10;" d="M 164.574219 143.199219 L 168.765625 153.546875 "/>
<path style="fill:none;stroke-width:1.2;stroke-linecap:butt;stroke-linejoin:miter;stroke:rgb(80%,80%,0%);stroke-opacity:1;stroke-miterlimit:10;" d="M 166.695312 151.929688 L 159.828125 160.734375 "/>
<path style="fill:none;stroke-width:1.2;stroke-linecap:butt;stroke-linejoin:miter;stroke:rgb(100%,0%,0%);stroke-opacity:1;stroke-miterlimit:10;" d="M 159.828125 160.734375 L 152.964844 169.535156 "/>
<path style="fill:none;stroke-width:1.2;stroke-linecap:butt;stroke-linejoin:miter;stroke:rgb(80%,80%,0%);stroke-opacity:1;stroke-miterlimit:10;" d="M 170.835938 155.160156 L 163.972656 163.964844 "/>
<path style="fill:none;stroke-width:1.2;stroke-linecap:butt;stroke-linejoin:miter;stroke:rgb(100%,0%,0%);stroke-opacity:1;stroke-miterlimit:10;" d="M 163.972656 163.964844 L 157.109375 172.765625 "/>
<path style="fill:none;stroke-width:1.2;stroke-linecap:butt;stroke-linejoin:miter;stroke:rgb(80%,80%,0%);stroke-opacity:1;stroke-miterlimit:10;" d="M 168.765625 153.546875 L 179.824219 155.089844 "/>
<path style="fill:none;stroke-width:1.2;stroke-linecap:butt;stroke-linejoin:miter;stroke:rgb(0%,0%,0%);stroke-opacity:1;stroke-miterlimit:10;" d="M 179.824219 155.089844 L 190.878906 156.632812 "/>
<path style=" stroke:none;fill-rule:nonzero;fill:rgb(100%,100%,100%);fill-opacity:1;" d="M 165.765625 148.046875 L 171.765625 148.046875 L 171.765625 159.046875 L 165.765625 159.046875 Z M 165.765625 148.046875 "/>
<g style="fill:rgb(80%,80%,0%);fill-opacity:1;">
  <use xlink:href="#glyph0-2" x="165.765625" y="156.709961"/>
</g>
<path style=" stroke:none;fill-rule:nonzero;fill:rgb(100%,100%,100%);fill-opacity:1;" d="M 147.035156 165.652344 L 155.035156 165.652344 L 155.035156 176.652344 L 147.035156 176.652344 Z M 147.035156 165.652344 "/>
<g style="fill:rgb(100%,0%,0%);fill-opacity:1;">
  <use xlink:href="#glyph0-3" x="147.035156" y="174.31543"/>
</g>
<path style="fill:none;stroke-width:1.2;stroke-linecap:butt;stroke-linejoin:miter;stroke:rgb(0%,0%,0%);stroke-opacity:1;stroke-miterlimit:10;" d="M 190.878906 156.632812 L 196.128906 166.484375 "/>
<path style="fill:none;stroke-width:1.2;stroke-linecap:butt;stroke-linejoin:miter;stroke:rgb(0%,0%,100%);stroke-opacity:1;stroke-miterlimit:10;" d="M 196.128906 166.484375 L 201.378906 176.335938 "/>
<path style="fill:none;stroke-width:1.2;stroke-linecap:butt;stroke-linejoin:miter;stroke:rgb(0%,0%,0%);stroke-opacity:1;stroke-miterlimit:10;" d="M 196.566406 156.132812 L 200.765625 164.015625 "/>
<path style="fill:none;stroke-width:1.2;stroke-linecap:butt;stroke-linejoin:miter;stroke:rgb(0%,0%,100%);stroke-opacity:1;stroke-miterlimit:10;" d="M 200.765625 164.015625 L 204.964844 171.894531 "/>
<path style="fill:none;stroke-width:1.2;stroke-linecap:butt;stroke-linejoin:miter;stroke:rgb(0%,0%,100%);stroke-opacity:1;stroke-miterlimit:10;" d="M 206.375 140.558594 L 198.625 148.59375 "/>
<path style="fill:none;stroke-width:1.2;stroke-linecap:butt;stroke-linejoin:miter;stroke:rgb(0%,0%,0%);stroke-opacity:1;stroke-miterlimit:10;" d="M 198.625 148.59375 L 190.878906 156.632812 "/>
<path style="fill:none;stroke-width:1.2;stroke-linecap:butt;stroke-linejoin:miter;stroke:rgb(0%,0%,100%);stroke-opacity:1;stroke-miterlimit:10;" d="M 201.378906 176.335938 L 212.371094 174.386719 "/>
<path style="fill:none;stroke-width:1.2;stroke-linecap:butt;stroke-linejoin:miter;stroke:rgb(0%,0%,0%);stroke-opacity:1;stroke-miterlimit:10;" d="M 212.371094 174.386719 L 223.363281 172.4375 "/>
<path style=" stroke:none;fill-rule:nonzero;fill:rgb(100%,100%,100%);fill-opacity:1;" d="M 198.378906 170.835938 L 205.378906 170.835938 L 205.378906 181.835938 L 198.378906 181.835938 Z M 198.378906 170.835938 "/>
<g style="fill:rgb(0%,0%,100%);fill-opacity:1;">
  <use xlink:href="#glyph0-1" x="198.378906" y="179.499023"/>
</g>
<path style="fill:none;stroke-width:1.2;stroke-linecap:butt;stroke-linejoin:miter;stroke:rgb(0%,0%,0%);stroke-opacity:1;stroke-miterlimit:10;" d="M 223.363281 172.4375 L 240.96875 186.167969 "/>
<path style="fill:none;stroke-width:1.2;stroke-linecap:butt;stroke-linejoin:miter;stroke:rgb(0%,0%,0%);stroke-opacity:1;stroke-miterlimit:10;" d="M 228.355469 169.667969 L 242.4375 180.652344 "/>
<path style="fill:none;stroke-width:1.2;stroke-linecap:butt;stroke-linejoin:miter;stroke:rgb(0%,0%,0%);stroke-opacity:1;stroke-miterlimit:10;" d="M 226.449219 150.328125 L 223.363281 172.4375 "/>
<path style="fill:none;stroke-width:1.2;stroke-linecap:butt;stroke-linejoin:miter;stroke:rgb(0%,0%,0%);stroke-opacity:1;stroke-miterlimit:10;" d="M 240.96875 186.167969 L 261.664062 177.785156 "/>
<path style="fill:none;stroke-width:1.2;stroke-linecap:butt;stroke-linejoin:miter;stroke:rgb(0%,0%,0%);stroke-opacity:1;stroke-miterlimit:10;" d="M 261.664062 177.785156 L 264.75 155.671875 "/>
<path style="fill:none;stroke-width:1.2;stroke-linecap:butt;stroke-linejoin:miter;stroke:rgb(0%,0%,0%);stroke-opacity:1;stroke-miterlimit:10;" d="M 256.769531 174.847656 L 259.238281 157.160156 "/>
<path style="fill:none;stroke-width:1.2;stroke-linecap:butt;stroke-linejoin:miter;stroke:rgb(0%,0%,0%);stroke-opacity:1;stroke-miterlimit:10;" d="M 264.75 155.671875 L 247.144531 141.945312 "/>
<path style="fill:none;stroke-width:1.2;stroke-linecap:butt;stroke-linejoin:miter;stroke:rgb(0%,0%,0%);stroke-opacity:1;stroke-miterlimit:10;" d="M 247.144531 141.945312 L 226.449219 150.328125 "/>
<path style="fill:none;stroke-width:1.2;stroke-linecap:butt;stroke-linejoin:miter;stroke:rgb(0%,0%,0%);stroke-opacity:1;stroke-miterlimit:10;" d="M 247.046875 147.652344 L 230.492188 154.355469 "/>
<path style="fill:none;stroke-width:1.2;stroke-linecap:butt;stroke-linejoin:miter;stroke:rgb(0%,0%,0%);stroke-opacity:1;stroke-miterlimit:10;" d="M 226.449219 150.328125 L 216.410156 145.441406 "/>
<path style="fill:none;stroke-width:1.2;stroke-linecap:butt;stroke-linejoin:miter;stroke:rgb(0%,0%,100%);stroke-opacity:1;stroke-miterlimit:10;" d="M 216.410156 145.441406 L 206.375 140.558594 "/>
<path style=" stroke:none;fill-rule:nonzero;fill:rgb(100%,100%,100%);fill-opacity:1;" d="M 199.375 135.058594 L 213.375 135.058594 L 213.375 146.058594 L 199.375 146.058594 Z M 199.375 135.058594 "/>
<g style="fill:rgb(0%,0%,100%);fill-opacity:1;">
  <use xlink:href="#glyph0-1" x="199.375" y="143.72168"/>
  <use xlink:href="#glyph0-4" x="206.352539" y="143.72168"/>
</g>
<path style="fill:none;stroke-width:1.2;stroke-linecap:butt;stroke-linejoin:miter;stroke:rgb(100%,0%,0%);stroke-opacity:1;stroke-miterlimit:10;" d="M 88.699219 161.890625 L 77.640625 160.347656 "/>
<path style="fill:none;stroke-width:1.2;stroke-linecap:butt;stroke-linejoin:miter;stroke:rgb(0%,0%,0%);stroke-opacity:1;stroke-miterlimit:10;" d="M 77.640625 160.347656 L 66.585938 158.804688 "/>
<path style=" stroke:none;fill-rule:nonzero;fill:rgb(100%,100%,100%);fill-opacity:1;" d="M 84.699219 156.390625 L 92.699219 156.390625 L 92.699219 167.390625 L 84.699219 167.390625 Z M 84.699219 156.390625 "/>
<g style="fill:rgb(100%,0%,0%);fill-opacity:1;">
  <use xlink:href="#glyph0-3" x="84.699219" y="165.053711"/>
</g>
<path style="fill:none;stroke-width:1.2;stroke-linecap:butt;stroke-linejoin:miter;stroke:rgb(0%,0%,0%);stroke-opacity:1;stroke-miterlimit:10;" d="M 66.585938 158.804688 L 52.855469 176.410156 "/>
<path style="fill:none;stroke-width:1.2;stroke-linecap:butt;stroke-linejoin:miter;stroke:rgb(0%,0%,0%);stroke-opacity:1;stroke-miterlimit:10;" d="M 52.855469 176.410156 L 45.992188 185.214844 "/>
<path style="fill:none;stroke-width:1.2;stroke-linecap:butt;stroke-linejoin:miter;stroke:rgb(20%,80%,80%);stroke-opacity:1;stroke-miterlimit:10;" d="M 45.992188 185.214844 L 39.125 194.015625 "/>
<path style="fill:none;stroke-width:1.2;stroke-linecap:butt;stroke-linejoin:miter;stroke:rgb(0%,0%,0%);stroke-opacity:1;stroke-miterlimit:10;" d="M 52.855469 176.410156 L 44.054688 169.542969 "/>
<path style="fill:none;stroke-width:1.2;stroke-linecap:butt;stroke-linejoin:miter;stroke:rgb(20%,80%,80%);stroke-opacity:1;stroke-miterlimit:10;" d="M 44.054688 169.542969 L 35.25 162.679688 "/>
<path style="fill:none;stroke-width:1.2;stroke-linecap:butt;stroke-linejoin:miter;stroke:rgb(0%,0%,0%);stroke-opacity:1;stroke-miterlimit:10;" d="M 52.855469 176.410156 L 61.660156 183.273438 "/>
<path style="fill:none;stroke-width:1.2;stroke-linecap:butt;stroke-linejoin:miter;stroke:rgb(20%,80%,80%);stroke-opacity:1;stroke-miterlimit:10;" d="M 61.660156 183.273438 L 70.464844 190.140625 "/>
<path style=" stroke:none;fill-rule:nonzero;fill:rgb(100%,100%,100%);fill-opacity:1;" d="M 33.125 188.515625 L 39.125 188.515625 L 39.125 199.515625 L 33.125 199.515625 Z M 33.125 188.515625 "/>
<g style="fill:rgb(20%,80%,80%);fill-opacity:1;">
  <use xlink:href="#glyph0-5" x="33.125" y="197.178711"/>
</g>
<path style=" stroke:none;fill-rule:nonzero;fill:rgb(100%,100%,100%);fill-opacity:1;" d="M 29.25 157.179688 L 35.25 157.179688 L 35.25 168.179688 L 29.25 168.179688 Z M 29.25 157.179688 "/>
<g style="fill:rgb(20%,80%,80%);fill-opacity:1;">
  <use xlink:href="#glyph0-5" x="29.25" y="165.842773"/>
</g>
<path style=" stroke:none;fill-rule:nonzero;fill:rgb(100%,100%,100%);fill-opacity:1;" d="M 67.464844 184.640625 L 73.464844 184.640625 L 73.464844 195.640625 L 67.464844 195.640625 Z M 67.464844 184.640625 "/>
<g style="fill:rgb(20%,80%,80%);fill-opacity:1;">
  <use xlink:href="#glyph0-5" x="67.464844" y="193.303711"/>
</g>
</g>
</svg>

<svg xmlns="http://www.w3.org/2000/svg" xmlns:xlink="http://www.w3.org/1999/xlink" width="300pt" height="300pt" viewBox="0 0 300 300"><defs><symbol overflow="visible"><path d="M.453 1.594v-7.938h4.5v7.938zm.5-.5h3.5v-6.938h-3.5zm0 0"/></symbol><symbol overflow="visible" id="a"><path d="M.89-6.563H2.08l2.906 5.485v-5.484h.86V0H4.656L1.75-5.484V0H.89zm0 0"/></symbol><symbol overflow="visible" id="b"><path d="M4.813-6.344v.86c-.336-.157-.653-.27-.954-.344-.294-.082-.58-.125-.86-.125-.492 0-.867.094-1.125.28-.262.19-.39.454-.39.798 0 .293.085.512.265.656.176.15.504.267.984.36l.547.11c.658.125 1.142.352 1.454.672.32.312.485.734.485 1.265 0 .637-.216 1.122-.642 1.454-.43.325-1.055.485-1.875.485-.312 0-.648-.04-1-.11C1.36-.046 1-.147.625-.296v-.906c.352.2.703.35 1.047.453.35.105.695.156 1.03.156.5 0 .884-.097 1.157-.297.28-.196.42-.485.42-.86 0-.32-.1-.57-.296-.75-.2-.176-.523-.313-.968-.406l-.547-.11C1.81-3.148 1.33-3.36 1.03-3.64.74-3.923.595-4.313.595-4.813c0-.57.203-1.024.61-1.36.405-.344.968-.516 1.687-.516.313 0 .626.032.938.094.32.055.65.137.985.25zm0 0"/></symbol><symbol overflow="visible" id="c"><path d="M3.547-5.953c-.65 0-1.164.242-1.547.72-.375.48-.563 1.13-.563 1.952 0 .835.188 1.49.563 1.967.383.48.898.72 1.547.72.644 0 1.156-.24 1.53-.72.376-.476.564-1.132.564-1.968 0-.822-.187-1.474-.562-1.954-.375-.477-.887-.72-1.53-.72zm0-.734c.914 0 1.648.312 2.203.937.55.617.828 1.438.828 2.47 0 1.042-.277 1.87-.828 2.483-.555.617-1.29.922-2.203.922-.93 0-1.668-.305-2.22-.922C.774-1.41.5-2.237.5-3.28c0-1.033.273-1.853.828-2.47.55-.625 1.29-.938 2.22-.938zm0 0"/></symbol><symbol overflow="visible" id="d"><path d="M.89-6.563h.876v2.688H5v-2.688h.89V0H5v-3.125H1.766V0H.89zm0 0"/></symbol><symbol overflow="visible" id="e"><path d="M.89-6.563h3.766v.75h-2.89v1.938h2.61v.734h-2.61V0H.89zm0 0"/></symbol></defs><g><path fill="#fff" d="M0 0h300v300H0z"/><path d="M132.926 168.066l-8.383-20.695M124.543 147.37l-22.113-3.085M123.055 141.86l-17.688-2.47M138.27 129.766l-13.727 17.605M102.43 144.285l-8.383-20.695M102.43 144.285l-6.868 8.8" stroke-width="1.2" stroke="#000" stroke-miterlimit="10" fill="none"/><path d="M95.563 153.086l-6.864 8.805" stroke-width="1.2" stroke="#f00" stroke-miterlimit="10" fill="none"/><path d="M94.047 123.59l13.73-17.606M99.563 125.06l10.984-14.083M107.777 105.984l11.055 1.543" stroke-width="1.2" stroke="#000" stroke-miterlimit="10" fill="none"/><path d="M118.832 107.527l11.055 1.543M129.887 109.07l4.19 10.348" stroke-width="1.2" stroke="#00f" stroke-miterlimit="10" fill="none"/><path d="M134.078 119.418l4.192 10.348" stroke-width="1.2" stroke="#000" stroke-miterlimit="10" fill="none"/><path d="M125.855 113.113l3.356 8.278" stroke-width="1.2" stroke="#00f" stroke-miterlimit="10" fill="none"/><path d="M129.21 121.39l3.352 8.278" stroke-width="1.2" stroke="#000" stroke-miterlimit="10" fill="none"/><path d="M126.887 103.57h7v11h-7zm0 0" fill="#fff"/><use xlink:href="#a" x="126.887" y="112.233" fill="#00f"/><path d="M138.27 129.766l22.113 3.086M160.383 132.852l4.19 10.347" stroke-width="1.2" stroke="#000" stroke-miterlimit="10" fill="none"/><path d="M164.574 143.2l4.192 10.347M166.695 151.93l-6.867 8.804" stroke-width="1.2" stroke="#cc0" stroke-miterlimit="10" fill="none"/><path d="M159.828 160.734l-6.863 8.8" stroke-width="1.2" stroke="#f00" stroke-miterlimit="10" fill="none"/><path d="M170.836 155.16l-6.863 8.805" stroke-width="1.2" stroke="#cc0" stroke-miterlimit="10" fill="none"/><path d="M163.973 163.965l-6.864 8.8" stroke-width="1.2" stroke="#f00" stroke-miterlimit="10" fill="none"/><path d="M168.766 153.547l11.058 1.543" stroke-width="1.2" stroke="#cc0" stroke-miterlimit="10" fill="none"/><path d="M179.824 155.09l11.055 1.543" stroke-width="1.2" stroke="#000" stroke-miterlimit="10" fill="none"/><path d="M165.766 148.047h6v11h-6zm0 0" fill="#fff"/><use xlink:href="#b" x="165.766" y="156.71" fill="#cc0"/><path d="M147.035 165.652h8v11h-8zm0 0" fill="#fff"/><use xlink:href="#c" x="147.035" y="174.315" fill="#f00"/><path d="M190.88 156.633l5.25 9.85" stroke-width="1.2" stroke="#000" stroke-miterlimit="10" fill="none"/><path d="M196.13 166.484l5.25 9.852" stroke-width="1.2" stroke="#00f" stroke-miterlimit="10" fill="none"/><path d="M196.566 156.133l4.2 7.883" stroke-width="1.2" stroke="#000" stroke-miterlimit="10" fill="none"/><path d="M200.766 164.016l4.2 7.88M206.375 140.56l-7.75 8.034" stroke-width="1.2" stroke="#00f" stroke-miterlimit="10" fill="none"/><path d="M198.625 148.594l-7.746 8.04" stroke-width="1.2" stroke="#000" stroke-miterlimit="10" fill="none"/><path d="M201.38 176.336l10.99-1.95" stroke-width="1.2" stroke="#00f" stroke-miterlimit="10" fill="none"/><path d="M212.37 174.387l10.993-1.95" stroke-width="1.2" stroke="#000" stroke-miterlimit="10" fill="none"/><path d="M198.38 170.836h7v11h-7zm0 0" fill="#fff"/><use xlink:href="#a" x="198.379" y="179.499" fill="#00f"/><path d="M223.363 172.438l17.606 13.73M228.355 169.668l14.083 10.984M226.45 150.328l-3.087 22.11M240.97 186.168l20.694-8.383M261.664 177.785l3.086-22.113M256.77 174.848l2.468-17.688M264.75 155.672l-17.605-13.727M247.145 141.945l-20.696 8.383M247.047 147.652l-16.555 6.703M226.45 150.328l-10.04-4.887" stroke-width="1.2" stroke="#000" stroke-miterlimit="10" fill="none"/><path d="M216.41 145.44l-10.035-4.88" stroke-width="1.2" stroke="#00f" stroke-miterlimit="10" fill="none"/><path d="M199.375 135.06h14v11h-14zm0 0" fill="#fff"/><g fill="#00f"><use xlink:href="#a" x="199.375" y="143.722"/><use xlink:href="#d" x="206.353" y="143.722"/></g><path d="M88.7 161.89l-11.06-1.542" stroke-width="1.2" stroke="#f00" stroke-miterlimit="10" fill="none"/><path d="M77.64 160.348l-11.054-1.543" stroke-width="1.2" stroke="#000" stroke-miterlimit="10" fill="none"/><path d="M84.7 156.39h8v11h-8zm0 0" fill="#fff"/><use xlink:href="#c" x="84.699" y="165.054" fill="#f00"/><path d="M66.586 158.805l-13.73 17.605M52.855 176.41l-6.863 8.805" stroke-width="1.2" stroke="#000" stroke-miterlimit="10" fill="none"/><path d="M45.992 185.215l-6.867 8.8" stroke-width="1.2" stroke="#3cc" stroke-miterlimit="10" fill="none"/><path d="M52.855 176.41l-8.8-6.867" stroke-width="1.2" stroke="#000" stroke-miterlimit="10" fill="none"/><path d="M44.055 169.543l-8.805-6.863" stroke-width="1.2" stroke="#3cc" stroke-miterlimit="10" fill="none"/><path d="M52.855 176.41l8.805 6.863" stroke-width="1.2" stroke="#000" stroke-miterlimit="10" fill="none"/><path d="M61.66 183.273l8.805 6.868" stroke-width="1.2" stroke="#3cc" stroke-miterlimit="10" fill="none"/><path d="M33.125 188.516h6v11h-6zm0 0" fill="#fff"/><use xlink:href="#e" x="33.125" y="197.179" fill="#3cc"/><path d="M29.25 157.18h6v11h-6zm0 0" fill="#fff"/><use xlink:href="#e" x="29.25" y="165.843" fill="#3cc"/><path d="M67.465 184.64h6v11h-6zm0 0" fill="#fff"/><use xlink:href="#e" x="67.465" y="193.304" fill="#3cc"/></g></svg>
